X: 14885
T: Gate Lodge, The
R: jig
M: 6/8
K: Dmajor
|:eBd cAB|ABA AGE|~G3 dGB|eBd cAG|
ABA eBd|cAG ABA|AGE ~G3|AGE DB,E|1 A,CE:|2 A,2 E||
|:Ace ac'b|a^ga ecA|GBd gba|gfg efg|
a/b/af g/a/ge|fed edc|dz B edB|1 A^GB A2 E:|2 A^GB A3|

